X: 1
T: Martin Rochford's
R: reel
M: 4/4
L: 1/8
K: Cmaj
FDCD FGAB|cAdA cAGA|FDCD FGAd|cAGA FDD2|
FDCD FGAB|cAdA cAGA|FDCD FGAd|cAGA F4||
f3f e2dc|Addd Addd|fedf edcA|cAGA FDD2|
f3f e2dc|Addc d3e|fgaf efge|cAGA F4||


Tune 1062	Setting 14290

